packages/tokens/icons/community/size16Px.svg

<svg viewBox="0 0 16 16" fill="none" xmlns="http://www.w3.org/2000/svg" width="1em" height="1em"><path d="M13.5 8.92749C13.5 9.47977 13.0523 9.92749 12.5 9.92749C11.9477 9.92749 11.5 9.47977 11.5 8.92749C11.5 8.37521 11.9477 7.92749 12.5 7.92749C13.0523 7.92749 13.5 8.37521 13.5 8.92749Z" stroke="currentColor" stroke-linecap="round" stroke-linejoin="round"/><path d="M12.5 11.5H13.5C14.0523 11.5 14.5 11.9477 14.5 12.5V13.4275" stroke="currentColor" stroke-linecap="round"/><path d="M2 8.92749C2 9.47977 2.44772 9.92749 3 9.92749C3.55228 9.92749 4 9.47977 4 8.92749C4 8.37521 3.55228 7.92749 3 7.92749C2.44772 7.92749 2 8.37521 2 8.92749Z" stroke="currentColor" stroke-linecap="round" stroke-linejoin="round"/><path d="M3.5 11.5H2.5C1.94772 11.5 1.5 11.9477 1.5 12.5L1.5 13.4275" stroke="currentColor" stroke-linecap="round"/><path d="M9.5 9C9.5 9.82843 8.82843 10.5 8 10.5C7.17157 10.5 6.5 9.82843 6.5 9C6.5 8.17157 7.17157 7.5 8 7.5C8.82843 7.5 9.5 8.17157 9.5 9Z" stroke="currentColor" stroke-linecap="round" stroke-linejoin="round"/><path d="M5.5 15L5.5 14.5C5.5 13.3954 6.39543 12.5 7.5 12.5H9C10.1046 12.5 11 13.3954 11 14.5V15" stroke="currentColor" stroke-linecap="round"/><path d="M4.5 6.24182L4.5 2.00003C4.5 1.72178 4.72386 1.49622 5 1.49622L11 1.49622C11.2761 1.49622 11.5 1.72178 11.5 2.00003V5C11.5 5.27825 11.2761 5.50382 11 5.50382L6.65139 5.50382C6.45396 5.50382 6.26096 5.5627 6.09669 5.67305L4.91603 6.46617C4.87207 6.49569 4.82042 6.51145 4.76759 6.51145C4.61981 6.51145 4.5 6.39074 4.5 6.24182Z" stroke="currentColor" stroke-linecap="round" stroke-linejoin="round"/></svg>

<svg xmlns="http://www.w3.org/2000/svg" fill="none" viewBox="0 0 16 16" width="1em" height="1em"><path stroke="currentColor" stroke-linecap="round" stroke-linejoin="round" d="M13.5 8.927a1 1 0 1 1-2 0 1 1 0 0 1 2 0Z"/><path stroke="currentColor" stroke-linecap="round" d="M12.5 11.5h1a1 1 0 0 1 1 1v.928"/><path stroke="currentColor" stroke-linecap="round" stroke-linejoin="round" d="M2 8.927a1 1 0 1 0 2 0 1 1 0 0 0-2 0Z"/><path stroke="currentColor" stroke-linecap="round" d="M3.5 11.5h-1a1 1 0 0 0-1 1v.928"/><path stroke="currentColor" stroke-linecap="round" stroke-linejoin="round" d="M9.5 9a1.5 1.5 0 1 1-3 0 1.5 1.5 0 0 1 3 0Z"/><path stroke="currentColor" stroke-linecap="round" d="M5.5 15v-.5a2 2 0 0 1 2-2H9a2 2 0 0 1 2 2v.5"/><path stroke="currentColor" stroke-linecap="round" stroke-linejoin="round" d="M4.5 6.242V2c0-.278.224-.504.5-.504h6c.276 0 .5.226.5.504v3a.502.502 0 0 1-.5.504H6.651a.995.995 0 0 0-.554.17l-1.181.792a.266.266 0 0 1-.416-.224Z"/></svg>
